icons/svg/icons8/ambulance.svg

<svg width="26" height="26" viewBox="0 0 26 26" fill="none" xmlns="http://www.w3.org/2000/svg">
<path d="M6.50001 25.813C7.77745 25.813 8.81301 24.7774 8.81301 23.5C8.81301 22.2226 7.77745 21.187 6.50001 21.187C5.22258 21.187 4.18701 22.2226 4.18701 23.5C4.18701 24.7774 5.22258 25.813 6.50001 25.813Z" fill="#333333"/>
<path d="M20.5 25.813C21.7774 25.813 22.813 24.7774 22.813 23.5C22.813 22.2226 21.7774 21.187 20.5 21.187C19.2226 21.187 18.187 22.2226 18.187 23.5C18.187 24.7774 19.2226 25.813 20.5 25.813Z" fill="#333333"/>
<path d="M14.811 6.00001C14.812 5.67201 14.813 4.35401 14.813 4.00001C14.813 2.99901 14.001 2.18701 13 2.18701C11.999 2.18701 11.188 2.99901 11.188 4.00001C11.188 4.35401 11.189 5.68101 11.19 6.00001H14.811Z" fill="#333333"/>
<path d="M25.234 15.98L19 8C18.543 7.449 18.234 7 17.5 7H1C0.449 7 0 7.449 0 8V22C0 22.551 0.449 23 1 23H2.994C3.239 21.277 4.71 19.943 6.5 19.943C8.29 19.943 9.761 21.277 10.006 23H17.024C17.268 21.291 18.723 19.973 20.501 19.973C22.279 19.973 23.733 21.291 23.978 23H25C25.551 23 26 22.551 26 22C26 22 26 18.947 26 18C26 17.053 25.234 15.98 25.234 15.98ZM8 17.213C5.673 17.213 3.787 15.326 3.787 13C3.787 10.674 5.673 8.787 8 8.787C10.327 8.787 12.213 10.674 12.213 13C12.213 15.326 10.327 17.213 8 17.213ZM16 16V10H18.518C18.678 10 18.903 10.236 18.903 10.236L22.696 15.15C22.882 15.424 23.085 15.75 23.085 16H16Z" fill="#333333"/>
<path d="M9 10H7V16H9V10Z" fill="#333333"/>
<path d="M11 12H5V14H11V12Z" fill="#333333"/>
</svg>

<?xml version="1.0" encoding="utf-8"?>
<!-- Generator: Adobe Illustrator 15.0.0, SVG Export Plug-In . SVG Version: 6.00 Build 0)  -->
<!DOCTYPE svg PUBLIC "-//W3C//DTD SVG 1.1//EN" "http://www.w3.org/Graphics/SVG/1.1/DTD/svg11.dtd">
<svg version="1.1" id="Layer_1" xmlns="http://www.w3.org/2000/svg" xmlns:xlink="http://www.w3.org/1999/xlink" x="0px" y="0px"
	 width="26px" height="26px" viewBox="0 0 26 26" enable-background="new 0 0 26 26" xml:space="preserve">
<rect fill="none" width="26" height="26"/>
<g>
	<circle fill="#333333" cx="6.5" cy="23.5" r="2.313"/>
</g>
<g>
	<circle fill="#333333" cx="20.5" cy="23.5" r="2.313"/>
</g>
<g>
	<path fill="#333333" d="M14.811,6c0.001-0.328,0.002-1.646,0.002-2c0-1.001-0.812-1.813-1.813-1.813S11.188,2.999,11.188,4
		c0,0.354,0.001,1.681,0.002,2H14.811z"/>
</g>
<path fill="#333333" d="M25.234,15.98L19,8c-0.457-0.551-0.766-1-1.5-1H1C0.449,7,0,7.449,0,8v14c0,0.551,0.449,1,1,1h1.994
	c0.245-1.723,1.716-3.057,3.506-3.057S9.761,21.277,10.006,23h7.018c0.244-1.709,1.699-3.027,3.477-3.027s3.232,1.318,3.477,3.027
	H25c0.551,0,1-0.449,1-1c0,0,0-3.053,0-4S25.234,15.98,25.234,15.98z M8,17.213c-2.327,0-4.213-1.887-4.213-4.213
	S5.673,8.787,8,8.787s4.213,1.887,4.213,4.213S10.327,17.213,8,17.213z M16,16v-6h2.518c0.16,0,0.385,0.236,0.385,0.236l3.793,4.914
	c0.186,0.274,0.389,0.6,0.389,0.85H16z"/>
<rect x="7" y="10" fill="#333333" width="2" height="6"/>
<rect x="5" y="12" fill="#333333" width="6" height="2"/>
</svg>
